X:1
T:James Gibb editions
T:Let all our brethren join in one - Barnby
%%score ( 1 2 ) ( 3 4 )
L:1/8
Q:1/4=100
M:4/4
K:G
V:1 treble nm="Midi_20"
V:2 treble 
V:3 bass nm="Midi_20"
V:4 bass 
V:1
"^Jubilate (C. M. with refrain)""^Joseph Barnby\n(1838-96)""^Let all our brethren join in one" D2 | %1
 EF G2 G2 F2 | G3 A B2 c2 | d2 G2 AB c2 | B6 || B2 | c2 d2 B2 G2 | c2 d2 B2 A2 | B2 A2 G2 A2 | %9
 F2 G2 A2 D2 | F4 E4 | D6 ||"^Refrain" DD | E2 EE F2 F2 | G4 A2 AA | B2 BB ^c2 c2 | d6 || D2 | %18
 Bc d2 G2 A2 | B3 c d2 G2 | GA B2 D2 A2 | G6 |] %22
V:2
 B,2 | C2 D2 E2 D2 | D3 F G2 G2 | G2 G2 G2 F2 | G6 || G2 | A2 F2 G2 G2 | E2 A2 G2 D2 | %8
w: ||||||||
 D2 D2 B,2 E2 | D2 D2 D2 D2 | D4 ^C4 | D6 || DD | G,2 EE E2 ^D2 | (E2 G2) G2 FF | G2 GG G2 FE | %16
w: ||||For the|har- vest of by- gone|a\- * ges, In the|hope of the com- ing *|
 (F2 E2 D2) || D2 | DD D2 E2 F2 | G3 G G2 E2 | DD D2 D2 D2 | D6 |] %22
w: days, * *|Go|in- to his gates with|thank- ful- ness, And|in- to his courts with|praise.|
V:3
 G,2 | G,2 G,2 C2 A,2 | D3 D D2 E2 | D2 B,2 E2 D2 | D6 || D2 | D2 D2 D2 D2 | E2 D2 D2 D2 | %8
 G,2 A,2 B,2 A,2 | A,2 B,2 A,2 B,2 | A,4 G,4 | F,6 || G,G, | G,2 G,G, C2 B,2 | B,4 E2 DD | %15
 D2 EE E2 A,2 | (A,2 =C2 B,2) || %17
"^1. Let all our brethren join in one\nTo lift the heart and voice,\nThe Lord hath done great things for us,\nAnd therefore we rejoice, \nAnd therefore we rejoice:\n\n2. We with our ears have heard the tale,\nThe tale our fathers told,\nWhat wonders God for them and us\nDid in the time of old,\nDid in the time of old:" A,2 | %18
 G,A, B,2 B,2 D2 | %19
 D3 E D2"^3. Man sowed the seed and watered it\nIn sorrow and in care,\nBut God alone the increase gave\nAnd bade it blossom fair,\nAnd bade it blossom fair:\n\n4. All praise to him whose bounty crowns\nWith flowers and fruit the year;\nGod is our hope and strength today,\nTherefore we will not fear,\nTherefore we will not fear:" C2 | %20
 B,A, G,2 F,2 C2 | B,6 |] %22
V:4
 G,,2 | C,2 B,,2 A,,2 D,2 | B,,2 D,2 G,2 E,2 | B,,2 E,2 C,2 D,2 | G,6 || G,2 | F,2 D,2 G,2 B,2 | %7
 A,2 F,2 G,2 F,2 | G,2 F,2 E,2 ^C,2 | D,2 B,,2 F,,2 G,,2 | A,,4 A,,4 | D,6 || B,,B,, | %13
 C,2 B,,B,, A,,2 B,,2 | (E,2 D,2) C,2 D,D, | G,2 E,E, A,2 A,2 | D,6 || F,2 | G,G, B,,2 E,2 D,2 | %19
 G,2 E,2 B,,2 C,2 | D,D, D,2 D,2 D,2 | G,,6 |] %22

